X:1
T:Punch Alive
M:C|
L:1/8
S:Frank Kidson - Old English Country Dances  (1890)
Z:AK/Fiddler's Companion
K:C
e2f2d2c2|B2c2d2 cd|e2f2d2c2|d2B2 c4||
c2c2c2 BA|G2G2 G4|A2A2A2 GF|E2E2 E4|
C2D2E2F2|G2A2B2 AG|ABcA dcdB|c2c2 c4||
